X:1
T:Torment
T:Torment
T:From Violet Evergarden
T:Evan Call
T:Arr. by Yash Gupta
C:Evan Call
%%score 1 2 3 4
L:1/8
Q:3/8=118
M:6/8
K:Bb
V:1 treble nm="Violin" snm="Vln."
V:2 alto nm="Viola" snm="Vla."
V:3 bass nm="Violoncello" snm="Vc."
V:4 bass transpose=-12 nm="Contrabass" snm="Cb."
V:1
 z6 | z6 | z6 | z6 | z6 | z6 | z6 | z6 | z6 | z6 | z6 | z6 | z6 | z6 | z6 | z6 |!f! G z2 D z2 | %17
 !wedge!B.B.B !>!A z2 | !>!G z2 !>!D z2 | !wedge!d.d.d !>!c z2 | G z2 D z2 | !wedge!B.B.B !>!AE^F | %22
 G z2 Bce | d z2 B z2 |!mf! !wedge!B.d.d !wedge!B.d.d | !wedge!B.d.d !wedge!B z .d | %26
 !wedge!B.d.d !wedge!B.d.d | !wedge!e.d.e !wedge!d z2 | !wedge!B.d.d !wedge!B.d.d | %29
 !wedge!B.d.d !wedge!B z d |!f! (gab age | ^fgf .d) z .B | (edc) .B z .B | (cBc) .A z z | %34
!p!!p!!<(! (!^!G.B).B (!^!G.B).B | (!^!G.B).B !^!G z z | (!^!G.B).B (!^!G.B).B | %37
 (!^!G.B).B !^!G z z | ((!^!G.B)).B ((!^!G.B)).B | ((!^!G.B)).B !^!G z z | %40
 ((!^!G.B)).B ((!^!G.B)).B | ((!^!G.B)).B!ff! !^!G!<)! z2 |!p!!<(! ((!^!g.b)).b ((!^!g.b)).b | %43
 ((!^!g.b)).b !^!g z z | ((!^!g.b)).b ((!^!g.b)).b | ((!^!g.b)).b !^!g z2 | %46
 ((!^!g.b)).b ((!^!g.b)).b | ((!^!g.b)).b !^!g z z | ((!^!g.b)).b ((!^!g.b)).b | %49
 ((!^!g.b)).b!f! !^!g!<)! z2 |!f! !wedge!G,.G,.G, !wedge!G, z z | !wedge!G,.G,.G, !wedge!G, z2 | %52
 !wedge!G,.G,.G, !wedge!G, z2 | !wedge!E.E.E !wedge!E z2 | !wedge!c.c.c !wedge!c z2 | %55
 !wedge!B.B.B !wedge!B z2 | !wedge!A.A.A !wedge!A z2 | !wedge!B.B.B !wedge!c.c.c | %58
 !wedge!d.d.d !wedge!d z2 | !wedge!^c.c.c !wedge!c z2 | !wedge!=B.B.B !wedge!B z2 | %61
 !wedge!_d.d.d !wedge!=d.d.d |!<(! !wedge!=e.e.e !wedge!e z2 | !wedge!^f.f.f !wedge!f z2 | %64
 !wedge!g.g.g !wedge!a.a.a | !wedge!b.b.b !wedge!=b.=e.^f!<)! |!mp! .g.g.g .g z .g | %67
 .g.g.g .g z .g | .g.g.g .g z .g | .g z2 .g z2 | .g.g.g .g z .g | .g.g.g .g z .g | .g.g.g .g z .g | %73
 .g z2 .g z2 | .g.g.g .g z .g | .g.g.g .g z .g | .g.g.g .g z .g | .g z2 .g z2 | .g.g.g .g z .g | %79
 .g.g.g .g z .g | .g.g.g .g z .g | .g z2 .g z2 | z6 | !wedge!d.e.f !wedge!f.^f.g | z6 | z6 | z6 | %87
 z6 | z6 | z6 | z6 | z6 |!f! G z2 D z2 | !wedge!B.B.B !>!A z2 | !>!G z2 !>!D z2 | %95
 !wedge!d.d.d !>!c z2 | G z2 D z2 | !wedge!B.B.B !>!AE^F | G z2 Bce | d z2 B z2 | z6 | z6 | z6 | %103
 z6 |!ff! !wedge!d'.b.g !wedge!b.g.b | !wedge!c'.b.g !wedge!b.g.b | !wedge!d'.b.g !wedge!b.g.b | %107
 !wedge!c'.b.c' !wedge!e'.d'.c' | !wedge!d'.b.g !wedge!b.g.b | !wedge!c'.b.g !wedge!b.g.b | %110
 !^!g z2 !^!d z2 | !^!^f!>!e!>!d !^!c!>!B!>!A | !^!G z z4 |] %113
V:2
!mf! !wedge!d.B.G !wedge!B.G.B | !wedge!c.B.G !wedge!B.G.B | !wedge!d.B.G !wedge!B.G.B | %3
 !wedge!c.B.c !wedge!e.d.c | !wedge!d.B.G !wedge!B.G.B | !wedge!c.B.G !wedge!B.G.B | %6
 !wedge!A._G.A !wedge!B.G.B | !wedge!c.B.c !wedge!_d.B.d | !wedge!d.B.G !wedge!B.G.B | %9
 !wedge!c.B.G !wedge!B.G.B | !wedge!d.B.G !wedge!B.G.B | !wedge!c.B.c !wedge!e.d.c | %12
 !wedge!d.B.G !wedge!B.G.B | !wedge!c.B.G !wedge!B.G.B | !wedge!A._G.A !wedge!B.G.B | %15
 !wedge!c.B.c !wedge!_d.B.d |!mf! !wedge!d.B.G !wedge!B.G.B | !wedge!c.B.G !wedge!B.G.B | %18
 !wedge!d.B.G !wedge!B.G.B | !wedge!c.B.c !wedge!e.d.c | !wedge!d.B.G !wedge!B.G.B | %21
 !wedge!c.B.A !wedge!GGB | G z2 DCD | E z2 ^F z2 | G z z4 | z6 | z6 | z6 | z6 | z6 | %30
 !wedge!d.d.d !wedge!c.c.c | !wedge!B.B.B !wedge!A.A.A | z .D.D !wedge!C.C.C | %33
 !wedge!B,.C.B, !wedge!A, z2 |!p!!<(! .B, z .G, .B, z .G, | .A,.G,.E, .D, z2 | %36
 .B, z .G, .B, z .G, | .A,.G,.E, .D, z2 | .B, z .G, .B, z .G, | .A,.G,.E, .D, z2 | %40
 .B, z .G, .B, z .G, | .A,.G,.E,!ff! .D,!<)! z2 |!p!!<(! .B z .G .B z .G | .B.B.B .G z z | %44
 .B z .G .B z .G | .B.B.B .G z2 | .B z .G .B z .G | .B.B.B .G z2 | .B z .G .B z .G | %49
 .B.B.B!f! .G!<)! z2 |!f! !wedge!G.A.B !wedge!A.G.^F | !wedge!G.A.B !wedge!A z .^F | %52
 !wedge!G.A.B !wedge!A.G.^F | !wedge!E.^F.E !wedge!F z .G | !wedge!G.D.B !wedge!A.G.^F | %55
 !wedge!G.D.B !wedge!A z .A | !wedge!G.D.B !wedge!A.G.^F | !wedge!G.E.^F !wedge!G z2 | %58
 !wedge!^F.A.d !wedge!^c.=B._B | !wedge!^F.A.d !wedge!^c z .=B | !wedge!^F.A.d !wedge!^c.=B._B | %61
 !wedge!G.B.G !wedge!B z2 |!<(! !wedge!=B.^F.d !wedge!_d.B._B | !wedge!=B.^F.d !wedge!_d z .d | %64
 !wedge!=B.^F.d !wedge!_d.B._B | !wedge!=B._d.=d !wedge!_d.A.^F!<)! | z3 .B z2 | .A z2 .B z2 | %68
 z3 .B z2 | .A z2 .^F z2 | z3 .B z2 | .A z2 .B z2 | z3 .c z2 | .^c z2 .d z2 | z3 .B z2 | %75
 .A z2 .B z2 | z3 .B z2 | .A z2 .^F z2 | z3 .B z2 | .A z2 .B z2 | .e.e.e .e z .e | .d z2 .^f z2 | %82
 z6 | !wedge!D.E.F !wedge!F.^F.G | !wedge!d.B.G !wedge!B.G.B | !wedge!c.B.G !wedge!B.G.B | %86
 !wedge!d.B.G !wedge!B.G.B | !wedge!c.B.c !wedge!e.d.c | !wedge!d.B.G !wedge!B.G.B | %89
 !wedge!c.B.G !wedge!B.G.B | !wedge!A._G.A !wedge!B.G.B | !wedge!c.B.c !wedge!_d.B.d | %92
!mf! !wedge!d.B.G !wedge!B.G.B | !wedge!c.B.G !wedge!B.G.B | !wedge!d.B.G !wedge!B.G.B | %95
 !wedge!c.B.c !wedge!e.d.c | !wedge!d.B.G !wedge!B.G.B | !wedge!c.B.A !wedge!GGB | G z2 DCD | %99
 E z2 ^F z2 |[K:treble-8] .e'.b.g .d'.b.g | .^c'.b.f .=c'._g.e | .=b.^f.d .a.e.c | %103
 .g.e.c .^f.^c._A |!ff! z6 | !wedge!b.b.b !wedge!d'.d'.d' | z6 | !wedge!e'.d'.c' !wedge!b.a.g | %108
 z6 | !wedge!d.^f.d !wedge!c.B.A | !^!e z2 !^!g z2 | !^!B!>!A!>!B !^!c!>!B!>!A | !^!G z z4 |] %113
V:3
 z6 | z6 | z6 | z6 | z6 | z6 | z6 | z6 | !^!G, z2 !^!D z2 | !^!E z2 !^!D z2 | !^!G, z2 !^!D z2 | %11
 !wedge!E.E.D !wedge!C.B,.A, | !^!G, z2 !^!D z2 | !^!E z2 !^!D z2 | %14
 !wedge!A,._G,.A, !wedge!B,.G,.B, | !wedge!C.B,.C !wedge!F.B,.A, | !^!G z2 !^!D z2 | %17
 !^!E z2 !^!D z2 | !^!G z2 !^!D z2 | !wedge!E.E.D !wedge!C.B,.A, | !^!G, z2 !^!D z2 | %21
 !^!E z2 !^!D=E,^F, | G, z2 C,C,C, | C, z2 A,, z2 | G,, z z4 | z6 | z6 | z6 | z6 | z6 | %30
 !wedge!D.D.D !wedge!C.C.C | !wedge!B,.B,.B, !wedge!A,.A,.A, | z .D,.D, !wedge!C,.C,.C, | %33
 !wedge!B,,.C,.B,, !wedge!A,, z2 |!p!!<(! .B, z .G, .B, z .G, | .A,.G,.E, .D, z2 | %36
 .B, z .G, .B, z .G, | .A,.G,.E, .D, z2 | .B, z .G, .B, z .G, | .A,.G,.E, .D, z2 | %40
 .B, z .G, .B, z .G, | .A,.G,.E,!ff! .D,!<)! z2 |!mf!!<(! .B, z .G, .B, z .G, | %43
 .A,.G,.E, .D, z .G, | .A,.B,.C .E.D.C | .^F.E.C .D z2 | .D.E.D .C.B,.A, | .G,.^F,.G, .A,.B,.A, | %48
 .G,.^F,.E, .G,,.C,.B,, | .B,,.C,.B,,!ff! .A,,!<)! z2 |!f! !wedge!G,.G,.G, !wedge!G,.G,.G, | %51
 !wedge!G,.G,.G, !wedge!G, z2 | !wedge!G,.G,.G, !wedge!G, z z | !wedge!B,.B,.B, !wedge!A,.A,.A, | %54
 !wedge!G, z2 !wedge!G,.G,.G, | !wedge!G, z2 !wedge!G, z2 | !wedge!G,.G,.G, !wedge!G, z2 | %57
 !wedge!B,.C.B, !wedge!A, z2 | !wedge!=B, z2 !wedge!B,.B,.B, | !wedge!=B, z2 !wedge!B, z2 | %60
 !wedge!=B,.B,.B, !wedge!B, z2 | !wedge!D z2 !wedge!=B,.B,.B, |!<(! !wedge!=B, z2 !wedge!B,.B,.B, | %63
 !wedge!=B, z2 !wedge!B, z2 | !wedge!=B,.B,.B, !wedge!B,._B,.=B, | %65
 !wedge!=B,._B,.=B, !wedge!A,.G,.^F,!<)! | !^!G, z z4 |!mp!"^pizz." DG^F D z2 | z6 | B,B,B, C z2 | %70
 z6 | DG^F D z2 | E z2 C z2 | D z2 z z2 | z6 | DG^F D z2 | z6 | B,B,B, C z2 | z6 | DG^F D z2 | %80
 E z2 C z2 | D z2 ^F z2 | z6 |"^arco." !wedge!D,.E,.F, !wedge!F,.^F,.G, | !^!G, z2 !^!D z2 | %85
 !^!E z2 !^!D z2 | !^!G, z2 !^!D z2 | !wedge!E.E.D !wedge!C.B,.A, | !^!G, z2 !^!D z2 | %89
 !^!E z2 !^!D z2 | !wedge!A,._G,.A, !wedge!B,.G,.B, | !wedge!C.B,.C !wedge!F.B,.A, | %92
 !^!G z2 !^!D z2 | !^!E z2 !^!D z2 | !^!G z2 !^!D z2 | !wedge!E.E.D !wedge!C.B,.A, | %96
 !^!G, z2 !^!D z2 | !^!E z2 !^!D=E,^F, | G, z2 C,C,C, | C, z2 A,, z2 | .E.B,.G, .D.B,.G, | %101
 .^C.B,.F, .=C._G,.E, | z6 |!ff! .A,.B,.C .C._D.=D |!ff! !^!D, z2 !^!C, z2 | !^!E, z2 !^!C, z2 | %106
 !^!D, z2 !^!C, z2 | !wedge!E,.E,.E, !wedge!^F,.F,.F, | !^!D, z2 !^!C, z2 | !^!E, z2 !^!C, z2 | %110
 !^!E, z2 !^!G, z2 | !^!B,,!>!A,,!>!B,, !^!C,!>!B,,!>!A,, | !^!G,, z z4 |] %113
V:4
 z6 | z6 | z6 | z6 | z6 | z6 | z6 | z3!f! .C,.B,,.A,, | !>!G,, z z4 | z6 | z6 | z6 | z6 | z6 | %14
 .^F,,.F,,.F,, .G,,.A,,.G,, | .A,,.B,,.A,, .C,.D,.B,, | !>!G,, z z4 | z3 G,,G,,G,, | G,, z z4 | %19
 z3 _G,,G,,G,, | G,, z z4 | z3 G,,B,,C, | D, z2 C,C,C, | D, z2 ^F, z2 | G, z z4 | z6 | z6 | z6 | %28
 z6 | z6 |!f! G,A,B, B,CD | EF^F G z B, | EDC B,A,G, | ^F,E,D, G, z2 |!p!!<(! .B, z .G, .B, z .G, | %35
 .A,.G,.E, .D, z2 | .B, z .G, .B, z .G, | .A,.G,.E, .D, z2 | .B, z .G, .B, z .G, | %39
 .A,.G,.E, .D, z2 | .B, z .G, .B, z .G, | .A,.G,.E,!ff! .D,!<)! z2 | z6 | z6 | z6 | z6 | z6 | z6 | %48
 z6 | z6 |!f! !wedge!E,.E,.E, !wedge!E z .B, | !wedge!E,.E,.B, !wedge!E z .B, | %52
 !wedge!E,.E,.E, !wedge!E, z2 | !wedge!B,.B,.B, .E, z2 | !wedge!G,,.G,,.G,, !wedge!G,, z2 | %55
 !wedge!G,,.G,,.G,, !wedge!B,,.B,,.^F,, | !wedge!G,,.G,,.G,, !wedge!G,, z .A,, | %57
 !wedge!B,,.C,.B,, !wedge!A,, z2 | !wedge!=B,,.B,,.B,, !wedge!B,, z .B,, | %59
 !wedge!=B,,.B,,.D, !wedge!D, z .B,, | !wedge!=B,,.B,,.B,, !wedge!B,, z2 | %61
 !wedge!D,.D,.D, !wedge!=B,, z2 |!<(! !wedge!=B,,.B,,.B,, !wedge!B,, z2 | %63
 !wedge!^F,.F,.F, !wedge!=E,.E,.E, | !wedge!D,.D,.D, !wedge!D,.^C,.D, | %65
 !wedge!D,.=E,.D, !wedge!_D,.A,,!ff!._G,,!<)! | !^!G,,2 z4 | z6 | z6 | z6 | z6 | z6 | z6 | z6 | %74
 z6 | z6 | z6 | z6 | z6 | z6 | z6 | z6 |!f! !wedge!G,.A,.B, !wedge!B,.C.D | %83
 !wedge!D.E.F !wedge!F.^F.G | !>!G,, z z4 | z6 | z6 | z6 | z6 | z6 | .^F,,.F,,.F,, .G,,.A,,.G,, | %91
 .A,,.B,,.A,, .C,.D,.B,, | !>!G,, z z4 | z3 G,,G,,G,, | G,, z z4 | z3 _G,,G,,G,, | G,, z z4 | %97
 z3 G,,B,,C, | D, z2 C,C,C, | D, z2 ^F, z2 | z6 | z6 | .=B,.^F,.D, .A,.E,.C, | %103
 .G,.E,.C, .^F,.^C,._A,, |!ff! !wedge!G,, z2 !wedge!D, z2 | !wedge!E,.E,.E, !wedge!C,.C,.C, | %106
 !wedge!G,,.G,,.G,, !wedge!D, z2 | !wedge!E,.E,.E, !wedge!^F,.F,.F, | !wedge!G,, z2 !wedge!D, z2 | %109
 !wedge!E,.E,.E, !wedge!C,.C,.C, | !^!E, z2 !^!G, z2 | !^!B,,!>!A,,!>!B,, !^!C,!>!B,,!>!A,, | %112
 !^!G,, z z4 |] %113

